!!!SOCIAL_FUNCTION:	winter dances
!!!PDT:	1956
!!!OTL: No_198_Skunk_Dance_Song_(b).krn
!!!LANG: Non-Tone
!!!LING_GROUP: Muskogean
!!!REG: Florida
**kern
*staff1
=1-
=
*clefF4
*k[f#c#g#d#]
*M2/4
(8B\L
8G#\J)
8B\
8r
=2
(8B\L
8G#\J)
8A\
8r
=3
8G#\L
8G#\J
8E\
8r
=4
(8C#/L
8BB/J)
8E\
8r
=5
32G#\LLK
16.E\J
8G#\J
8E\
8r
=6
16E\LL
(16E\J
8BB\J)
8E\
8r
=7
16.B\LL
32B\JK
8G#\J
16B\LK
8.B\J
=8
(16B\LL
16G#\J)
8G#\J
8A\
8r
=9
32B\LLK
16.A\J
8A\J
8E\
8r
=10
8C#/L
8BB/J
8E\
8r
=11
32G#\LLK
16.G#\JJ
32G#\LLK
16.G#\JJ
8E\
8r
=12
16C#/LL
16C#/J
8BB/J
8E\
8r
=13
8B\L
8G#\J
8B\
8r
=14
(16B\LL
16G#\J)
8G#\J
8A\
8r
=15
16B\LL
16G#\
(16A\
16G#\JJ)
8E\
8r
=16
8E/L
16BB/L
16BB/JJ
8E\
8r
=17
8E\L
8G#\J
8E\
8r
=18
8C#/L
16BB/L
16BB/JJ
8E\
8r
==:|!
*-
